src/images/icon-instagram.svg

<svg width="56.7" height="56.7" xmlns="http://www.w3.org/2000/svg">

 <g>
  <title>background</title>
  <rect fill="none" id="canvas_background" height="402" width="582" y="-1" x="-1"/>
 </g>
 <g>
  <title>Layer 1</title>
  <path fill="#ffffff" id="svg_2" d="m28.2,16.7c-7,0 -12.8,5.7 -12.8,12.8s5.7,12.8 12.8,12.8s12.8,-5.8 12.8,-12.8s-5.8,-12.8 -12.8,-12.8zm0,21c-4.5,0 -8.2,-3.7 -8.2,-8.2s3.7,-8.2 8.2,-8.2s8.2,3.7 8.2,8.2s-3.7,8.2 -8.2,8.2z"/>
  <circle fill="#ffffff" id="svg_3" r="2.9" cy="16.4" cx="41.5"/>
  <path fill="#ffffff" id="svg_4" d="m49,8.9c-2.6,-2.7 -6.3,-4.1 -10.5,-4.1l-20.6,0c-8.7,0 -14.5,5.8 -14.5,14.5l0,20.5c0,4.3 1.4,8 4.2,10.7c2.7,2.6 6.3,3.9 10.4,3.9l20.4,0c4.3,0 7.9,-1.4 10.5,-3.9c2.7,-2.6 4.1,-6.3 4.1,-10.6l0,-20.6c0,-4.2 -1.4,-7.8 -4,-10.4zm-0.4,31c0,3.1 -1.1,5.6 -2.9,7.3s-4.3,2.6 -7.3,2.6l-20.4,0c-3,0 -5.5,-0.9 -7.3,-2.6c-1.8,-1.8 -2.7,-4.3 -2.7,-7.4l0,-20.5c0,-3 0.9,-5.5 2.7,-7.3c1.7,-1.7 4.3,-2.6 7.3,-2.6l20.6,0c3,0 5.5,0.9 7.3,2.7c1.7,1.8 2.7,4.3 2.7,7.2l0,20.6l0,0z"/>
 </g>
</svg>

<?xml version="1.0" encoding="UTF-8" standalone="no"?>
<svg
   xmlns:dc="http://purl.org/dc/elements/1.1/"
   xmlns:cc="http://creativecommons.org/ns#"
   xmlns:rdf="http://www.w3.org/1999/02/22-rdf-syntax-ns#"
   xmlns:svg="http://www.w3.org/2000/svg"
   xmlns="http://www.w3.org/2000/svg"
   xmlns:sodipodi="http://sodipodi.sourceforge.net/DTD/sodipodi-0.dtd"
   xmlns:inkscape="http://www.inkscape.org/namespaces/inkscape"
   inkscape:version="1.0 (6e3e5246a0, 2020-05-07)"
   sodipodi:docname="icon-instagram.svg"
   id="svg750"
   version="1.1"
   viewBox="0 0 24 24"
   height="24"
   width="24">
  <metadata
     id="metadata756">
    <rdf:RDF>
      <cc:Work
         rdf:about="">
        <dc:format>image/svg+xml</dc:format>
        <dc:type
           rdf:resource="http://purl.org/dc/dcmitype/StillImage" />
        <dc:title></dc:title>
      </cc:Work>
    </rdf:RDF>
  </metadata>
  <defs
     id="defs754" />
  <sodipodi:namedview
     inkscape:current-layer="svg750"
     inkscape:window-maximized="1"
     inkscape:window-y="27"
     inkscape:window-x="0"
     inkscape:cy="14.334079"
     inkscape:cx="8.948435"
     inkscape:zoom="25.594368"
     showgrid="false"
     id="namedview752"
     inkscape:window-height="1016"
     inkscape:window-width="1920"
     inkscape:pageshadow="2"
     inkscape:pageopacity="0"
     guidetolerance="10"
     gridtolerance="10"
     objecttolerance="10"
     borderopacity="1"
     bordercolor="#666666"
     pagecolor="#ffffff" />
  <path
     style="fill:#ffffff;fill-opacity:1"
     sodipodi:nodetypes="ssssssssss"
     id="path748"
     d="M 12,2 C 17.514,2 22,6.486 22,12 22,17.514 17.514,22 12,22 6.486,22 2,17.514 2,12 2,6.486 6.486,2 12,2 Z M 12,0 C 5.373,0 0,5.373 0,12 0,18.627 5.373,24 12,24 18.627,24 24,18.627 24,12 24,5.373 18.627,0 12,0 Z" />
  <g
     style="fill:#ffffff;fill-opacity:1"
     transform="matrix(0.27525472,0,0,0.27525472,4.3236054,3.8524603)"
     id="g782">
	<path
   style="fill:#ffffff;fill-opacity:1"
   d="m 28.2,16.7 c -7,0 -12.8,5.7 -12.8,12.8 0,7.1 5.7,12.8 12.8,12.8 7.1,0 12.8,-5.8 12.8,-12.8 0,-7 -5.8,-12.8 -12.8,-12.8 z m 0,21 C 23.7,37.7 20,34 20,29.5 c 0,-4.5 3.7,-8.2 8.2,-8.2 4.5,0 8.2,3.7 8.2,8.2 0,4.5 -3.7,8.2 -8.2,8.2 z"
   id="path776" />

	<path
   style="fill:#ffffff;fill-opacity:1"
   d="m 44.4,16.4 a 2.9000001,2.9000001 0 0 1 -2.9,2.9 2.9000001,2.9000001 0 0 1 -2.9,-2.9 2.9000001,2.9000001 0 0 1 2.9,-2.9 2.9000001,2.9000001 0 0 1 2.9,2.9"
   id="circle778" />

	<path
   style="fill:#ffffff;fill-opacity:1"
   d="M 49,8.9 C 46.4,6.2 42.7,4.8 38.5,4.8 H 17.9 C 9.2,4.8 3.4,10.6 3.4,19.3 v 20.5 c 0,4.3 1.4,8 4.2,10.7 2.7,2.6 6.3,3.9 10.4,3.9 h 20.4 c 4.3,0 7.9,-1.4 10.5,-3.9 C 51.6,47.9 53,44.2 53,39.9 V 19.3 C 53,15.1 51.6,11.5 49,8.9 Z m -0.4,31 c 0,3.1 -1.1,5.6 -2.9,7.3 -1.8,1.7 -4.3,2.6 -7.3,2.6 H 18 c -3,0 -5.5,-0.9 -7.3,-2.6 C 8.9,45.4 8,42.9 8,39.8 V 19.3 C 8,16.3 8.9,13.8 10.7,12 12.4,10.3 15,9.4 18,9.4 h 20.6 c 3,0 5.5,0.9 7.3,2.7 1.7,1.8 2.7,4.3 2.7,7.2 z"
   id="path780" />

</g>
</svg>
